X:1
T: Glasgow Hornpipe
C:
R:Reel
Q: 232
K:G
M:4/4
L:1/8
|:BA|GD B,D G2 GB|AG AB c2 BA|Gg fg ed cB|c2 A2 A2 BA|
GD B,D G2 GB|AG AB c2 BA|Gg ed cB AG|B2 G2 A2 Bc|
dg fg ed cB|cB ce dc BA|Gg fg ed cB|c2 A2 A2 Bc|
dB cd ec de|fd ef g2 fe|dg fe dc BA|B2 G2 G2:|
